X: 1
T: Wood in the Warren
C: Marnen Laibow-Koser
R: waltz
Z: 2007 John Chambers <jc@trillian.mit.edu> 
S: Printed page labelles "22 Loretta Holz" at bottom
M: 3/4
L: 1/8
K: Am
E2 \
| "Am"E2 c2 B2 | "Dm"A2 G2 F2 | "Am"E3 ^D EF | E4 E2- \
| "E7"E2 B,C DB, | "Am"CA, CE Ac | "B7"c2 B2 A2 | "E7"e4 e2 |
| "Dm"e2 d2 ^c2 | "G7/f"d2 g2 e2 | "C/e"d2 c2 B2 | "FM7/e"c2 f2 c2- \
| "Dm"c2 ^A2 B2 | "E7"e2 ^G2 B2 |  "Am"AF ED "E7"CB, | "Am"A,4 A2 ||
|| "E"B2 ^G3 A | B2 e2 d2 | "Am"c2 A3 B | c2 ^f2 e2 \
| "B7"^d2 c'2 b2 | a2 g2 ^f2 | "Em"e3 ^d e^f | "C#dim7"g2 e2 _B2 |
| "Dm"A2 f2 e2 | "Gm"d2 c2 _B2 | "Dm"A2 D2 E2 | F3 G A=B \
| "Am/e"c2 E2 c2 | "E7"B2 e3 ^G | "Am"AF ED "E7"CB, | "Am"A,4 |]
